svgs/light/arrow-up-from-bracket.svg

<svg xmlns="http://www.w3.org/2000/svg" viewBox="0 0 448 512"><!--! Font Awesome Pro 6.0.0-alpha3 by @fontawesome - https://fontawesome.com License - https://fontawesome.com/license (Commercial License) --><path d="M212.7 4.688l-144 144c-6.25 6.25-6.25 16.38 0 22.62s16.38 6.25 22.62 0L208 54.63V336c0 8.844 7.156 16 16 16s16-7.156 16-16V54.63l116.7 116.7c6.25 6.25 16.38 6.25 22.62 0s6.25-16.38 0-22.62l-144-144C232.2 1.562 228.1 0 224 0S215.8 1.562 212.7 4.688zM416 336v96c0 26.47-21.53 48-48 48h-288C53.53 480 32 458.5 32 432v-96C32 327.2 24.84 320 16 320S0 327.2 0 336v96C0 476.1 35.88 512 80 512h288c44.13 0 80-35.88 80-80v-96c0-8.844-7.156-16-16-16S416 327.2 416 336z"/></svg>

<svg xmlns="http://www.w3.org/2000/svg" viewBox="0 0 448 512"><!--! Font Awesome Pro 6.4.2 by @fontawesome - https://fontawesome.com License - https://fontawesome.com/license (Commercial License) Copyright 2023 Fonticons, Inc. --><path d="M235.3 4.7c-6.2-6.2-16.4-6.2-22.6 0l-128 128c-6.2 6.2-6.2 16.4 0 22.6s16.4 6.2 22.6 0L208 54.6V336c0 8.8 7.2 16 16 16s16-7.2 16-16V54.6L340.7 155.3c6.2 6.2 16.4 6.2 22.6 0s6.2-16.4 0-22.6l-128-128zM32 336c0-8.8-7.2-16-16-16s-16 7.2-16 16v96c0 44.2 35.8 80 80 80H368c44.2 0 80-35.8 80-80V336c0-8.8-7.2-16-16-16s-16 7.2-16 16v96c0 26.5-21.5 48-48 48H80c-26.5 0-48-21.5-48-48V336z"/></svg>
